;FLAVOR:Marlin
;TIME:6502
;Filament used: 6.65815m
;Layer height: 0.2
;MINX:47.608
;MINY:47.616
;MINZ:0.3
;MAXX:152.392
;MAXY:152.384
;MAXZ:10.1
;Generated with Cura_SteamEngine 4.13.1
M140 S60
M105
M190 S60
M104 S210
M105
M109 S210
M82 ;absolute extrusion mode
G21 ;metric values
G90 ;absolute positioning
M82 ;set extruder to absolute mode
M107 ;start with the fan off
G28 X0 Y0 ;move X/Y to min endstops
G28 Z0 ;move Z to min endstops
G1 Z15.0 F9000 ;move the platform down 15mm
G92 E0 ;zero the extruded length
G1 F200 E3 ;extrude 3mm of feed stock
G92 E0 ;zero the extruded length again
G1 F9000
;Put printing message on LCD screen
M117 Printing...
G92 E0
G92 E0
G1 F2400 E-3
;LAYER_COUNT:50
;LAYER:0
M107
G0 F3600 X62.907 Y63.006 Z0.3
;TYPE:SKIRT
G1 F2400 E0
G1 F1800 X63.547 Y62.37 E0.04501
G1 X63.881 Y62.052 E0.06802
G1 X64.77 Y61.227 E0.12853
G1 X65.513 Y60.559 E0.17838
G1 X65.75 Y60.356 E0.19395
G1 X66.772 Y59.5 E0.26046
G1 X67.471 Y58.93 E0.30545
G1 X67.824 Y58.655 E0.32778
G1 X68.81 Y57.909 E0.38946
G1 X69.589 Y57.338 E0.43765
G1 X69.896 Y57.123 E0.45635
G1 X70.983 Y56.382 E0.52198
G1 X71.743 Y55.881 E0.5674
G1 X72.078 Y55.672 E0.58709
G1 X73.203 Y54.984 E0.65289
G1 X73.964 Y54.535 E0.69697
G1 X74.348 Y54.322 E0.71887
G1 X75.46 Y53.717 E0.78203
G1 X76.261 Y53.295 E0.8272
G1 X76.609 Y53.122 E0.84659
G1 X77.797 Y52.55 E0.91237
G1 X78.634 Y52.163 E0.95838
G1 X79.026 Y51.993 E0.97969
G1 X80.159 Y51.516 E1.04103
G1 X81.026 Y51.165 E1.08769
G1 X81.473 Y50.996 E1.11153
G1 X82.603 Y50.586 E1.1715
G1 X83.52 Y50.268 E1.21993
G1 X83.895 Y50.149 E1.23955
G1 X85.084 Y49.782 E1.30164
G1 X86.004 Y49.513 E1.34946
G1 X86.382 Y49.411 E1.36899
G1 X87.637 Y49.092 E1.43359
G1 X88.565 Y48.872 E1.48117
G1 X88.882 Y48.805 E1.49734
G1 X90.189 Y48.54 E1.56387
G1 X91.099 Y48.37 E1.61006
G1 X91.5 Y48.305 E1.63032
G1 X92.721 Y48.121 E1.69193
G1 X93.696 Y47.989 E1.74101
G1 X94.073 Y47.947 E1.75994
G1 X95.381 Y47.817 E1.82552
G1 X96.276 Y47.74 E1.87033
G1 X96.683 Y47.716 E1.89067
G1 X97.97 Y47.653 E1.95496
G1 X98.899 Y47.62 E2.00134
G1 X99.235 Y47.616 E2.0181
G1 X100.575 Y47.616 E2.08495
G1 X101.52 Y47.631 E2.13211
G1 X101.872 Y47.644 E2.14968
G1 X103.191 Y47.71 E2.21557
G1 X104.116 Y47.77 E2.26181
G1 X104.476 Y47.802 E2.27984
G1 X105.794 Y47.934 E2.34593
G1 X106.708 Y48.039 E2.39183
G1 X107.115 Y48.097 E2.41234
G1 X108.365 Y48.285 E2.4754
G1 X109.291 Y48.439 E2.52224
G1 X109.695 Y48.516 E2.54275
G1 X110.944 Y48.769 E2.60633
G1 X111.838 Y48.964 E2.65198
G1 X112.258 Y49.065 E2.67353
G1 X113.498 Y49.381 E2.73738
G1 X114.377 Y49.62 E2.78282
G1 X114.781 Y49.74 E2.80385
G1 X115.94 Y50.098 E2.86437
G1 X116.908 Y50.412 E2.91514
G1 X117.25 Y50.532 E2.93322
G1 X118.405 Y50.953 E2.99455
G1 X119.317 Y51.3 E3.04323
G1 X119.761 Y51.482 E3.06717
G1 X120.876 Y51.951 E3.12752
G1 X121.735 Y52.329 E3.17434
G1 X122.098 Y52.5 E3.19436
G1 X123.269 Y53.063 E3.25918
G1 X124.044 Y53.451 E3.30242
G1 X124.48 Y53.683 E3.32706
G1 X125.545 Y54.263 E3.38757
G1 X126.375 Y54.731 E3.4351
G1 X126.71 Y54.931 E3.45457
G1 X127.789 Y55.591 E3.51767
G1 X128.609 Y56.109 E3.56606
G1 X128.912 Y56.311 E3.58423
G1 X130.002 Y57.053 E3.65001
G1 X130.729 Y57.565 E3.69438
G1 X131.086 Y57.83 E3.71656
G1 X132.103 Y58.601 E3.78023
G1 X132.799 Y59.145 E3.8243
G1 X133.159 Y59.441 E3.84755
G1 X134.102 Y60.234 E3.90902
G1 X134.822 Y60.855 E3.95646
G1 X135.111 Y61.117 E3.97592
G1 X136.007 Y61.95 E4.03695
G1 X136.759 Y62.668 E4.08883
G1 X136.992 Y62.902 E4.1053
G1 X137.931 Y63.865 E4.17241
G1 X138.536 Y64.503 E4.21627
G1 X138.772 Y64.765 E4.23386
G1 X139.654 Y65.766 E4.30042
G1 X140.277 Y66.493 E4.34819
G1 X140.511 Y66.781 E4.3667
G1 X141.319 Y67.794 E4.43135
G1 X141.883 Y68.523 E4.47733
G1 X142.123 Y68.851 E4.49761
G1 X142.886 Y69.912 E4.56281
G1 X143.404 Y70.656 E4.60804
G1 X143.594 Y70.943 E4.62521
G1 X144.327 Y72.078 E4.69262
G1 X144.81 Y72.85 E4.73805
G1 X145.006 Y73.183 E4.75733
G1 X145.668 Y74.33 E4.8234
G1 X146.071 Y75.052 E4.86465
G1 X146.291 Y75.468 E4.88813
G1 X146.87 Y76.598 E4.95147
G1 X147.291 Y77.452 E4.99898
G1 X147.471 Y77.84 E5.02032
G1 X147.983 Y78.974 E5.08239
G1 X148.36 Y79.843 E5.12965
G1 X148.49 Y80.163 E5.14688
G1 X148.958 Y81.357 E5.21086
G1 X149.316 Y82.311 E5.2617
G1 X149.417 Y82.603 E5.27711
G1 X149.838 Y83.856 E5.34306
G1 X150.129 Y84.767 E5.39077
G1 X150.219 Y85.074 E5.40673
G1 X150.575 Y86.339 E5.4723
G1 X150.83 Y87.303 E5.52204
G1 X150.901 Y87.596 E5.53708
G1 X151.2 Y88.906 E5.60412
G1 X151.396 Y89.823 E5.6509
G1 X151.465 Y90.192 E5.66963
G1 X151.686 Y91.454 E5.73355
G1 X151.839 Y92.404 E5.78156
G1 X151.888 Y92.768 E5.79988
G1 X152.045 Y94.023 E5.86298
G1 X152.15 Y94.976 E5.91082
G1 X152.19 Y95.447 E5.9344
G1 X152.28 Y96.641 E5.99414
G1 X152.336 Y97.591 E6.04161
G1 X152.351 Y97.998 E6.06193
G1 X152.383 Y99.283 E6.12606
G1 X152.392 Y100.2 E6.17181
G1 X152.386 Y100.59 E6.19127
G1 X152.353 Y101.903 E6.2568
G1 X152.317 Y102.802 E6.30169
G1 X152.292 Y103.196 E6.32138
G1 X152.194 Y104.492 E6.38623
G1 X152.114 Y105.391 E6.43125
G1 X152.06 Y105.855 E6.45456
G1 X151.909 Y107.06 E6.51515
G1 X151.777 Y108.006 E6.5628
G1 X151.706 Y108.433 E6.5844
G1 X151.49 Y109.656 E6.64636
G1 X151.315 Y110.571 E6.69283
G1 X151.227 Y110.977 E6.71356
G1 X150.938 Y112.24 E6.7782
G1 X150.721 Y113.128 E6.82381
G1 X150.628 Y113.474 E6.84168
G1 X150.277 Y114.717 E6.90612
G1 X149.999 Y115.653 E6.95483
G1 X149.887 Y115.998 E6.97293
G1 X149.469 Y117.243 E7.03845
G1 X149.17 Y118.091 E7.08331
G1 X149.014 Y118.501 E7.10519
G1 X148.554 Y119.672 E7.16796
G1 X148.198 Y120.54 E7.21477
G1 X148.053 Y120.872 E7.23284
G1 X147.5 Y122.096 E7.29985
G1 X147.117 Y122.911 E7.34478
G1 X146.947 Y123.251 E7.36374
G1 X146.365 Y124.388 E7.42747
G1 X145.912 Y125.238 E7.47552
G1 X145.718 Y125.586 E7.4954
G1 X145.099 Y126.656 E7.55707
G1 X144.583 Y127.519 E7.60723
G1 X144.412 Y127.791 E7.62326
G1 X143.674 Y128.931 E7.69101
G1 X143.17 Y129.688 E7.73639
G1 X142.97 Y129.971 E7.75367
G1 X142.215 Y131.02 E7.81816
G1 X141.631 Y131.808 E7.86709
G1 X141.409 Y132.093 E7.88511
G1 X140.618 Y133.083 E7.94833
G1 X139.978 Y133.862 E7.99863
G1 X139.765 Y134.108 E8.01487
G1 X138.865 Y135.129 E8.08277
G1 X138.294 Y135.758 E8.12515
G1 X137.99 Y136.076 E8.1471
G1 X137.093 Y136.994 E8.21113
G1 X136.453 Y137.63 E8.25615
G1 X136.119 Y137.948 E8.27915
G1 X135.23 Y138.773 E8.33966
G1 X134.487 Y139.441 E8.38951
G1 X134.25 Y139.644 E8.40508
G1 X133.228 Y140.5 E8.47159
G1 X132.529 Y141.07 E8.51659
G1 X132.199 Y141.327 E8.53745
G1 X131.19 Y142.091 E8.6006
G1 X130.411 Y142.662 E8.64878
G1 X130.104 Y142.877 E8.66748
G1 X129.017 Y143.618 E8.73311
G1 X128.257 Y144.119 E8.77853
G1 X127.922 Y144.328 E8.79823
G1 X126.797 Y145.016 E8.86402
G1 X126.036 Y145.465 E8.9081
G1 X125.652 Y145.678 E8.93001
G1 X124.54 Y146.283 E8.99316
G1 X123.739 Y146.705 E9.03833
G1 X123.391 Y146.878 E9.05772
G1 X122.203 Y147.45 E9.1235
G1 X121.366 Y147.837 E9.16951
G1 X120.974 Y148.007 E9.19083
G1 X119.841 Y148.484 E9.25216
G1 X118.974 Y148.835 E9.29882
G1 X118.527 Y149.004 E9.32266
G1 X117.397 Y149.414 E9.38264
G1 X116.48 Y149.732 E9.43106
G1 X116.105 Y149.851 E9.45069
G1 X114.916 Y150.218 E9.51277
G1 X113.996 Y150.487 E9.56059
G1 X113.618 Y150.589 E9.58012
G1 X112.363 Y150.908 E9.64472
G1 X111.435 Y151.128 E9.69231
G1 X111.118 Y151.195 E9.70847
G1 X109.811 Y151.46 E9.775
G1 X108.901 Y151.63 E9.82119
G1 X108.5 Y151.695 E9.84146
G1 X107.279 Y151.879 E9.90306
G1 X106.304 Y152.011 E9.95215
G1 X105.927 Y152.053 E9.97107
G1 X104.619 Y152.183 E10.03665
G1 X103.724 Y152.26 E10.08147
G1 X103.317 Y152.284 E10.10181
G1 X102.03 Y152.347 E10.16609
G1 X101.101 Y152.38 E10.21247
G1 X100.765 Y152.384 E10.22923
G1 X99.425 Y152.384 E10.29609
G1 X98.48 Y152.369 E10.34324
G1 X98.128 Y152.356 E10.36081
G1 X96.808 Y152.29 E10.42675
G1 X95.883 Y152.23 E10.47299
G1 X95.524 Y152.198 E10.49098
G1 X94.209 Y152.066 E10.55691
G1 X93.292 Y151.961 E10.60296
G1 X92.885 Y151.903 E10.62347
G1 X91.635 Y151.715 E10.68653
G1 X90.709 Y151.561 E10.73337
G1 X90.305 Y151.484 E10.75389
G1 X89.056 Y151.231 E10.81746
G1 X88.162 Y151.036 E10.86311
G1 X87.742 Y150.935 E10.88467
G1 X86.502 Y150.619 E10.94851
G1 X85.623 Y150.38 E10.99395
G1 X85.219 Y150.26 E11.01498
G1 X84.06 Y149.902 E11.0755
G1 X83.092 Y149.588 E11.12627
G1 X82.75 Y149.468 E11.14435
G1 X81.595 Y149.047 E11.20568
G1 X80.683 Y148.7 E11.25436
G1 X80.239 Y148.518 E11.2783
G1 X79.124 Y148.049 E11.33865
G1 X78.265 Y147.671 E11.38547
G1 X77.902 Y147.5 E11.40549
G1 X76.731 Y146.937 E11.47032
G1 X75.956 Y146.549 E11.51356
G1 X75.52 Y146.317 E11.5382
G1 X74.455 Y145.737 E11.5987
G1 X73.625 Y145.269 E11.64624
G1 X73.29 Y145.069 E11.6657
G1 X72.211 Y144.409 E11.7288
G1 X71.391 Y143.891 E11.77719
G1 X71.087 Y143.689 E11.7954
G1 X69.998 Y142.946 E11.86117
G1 X69.271 Y142.435 E11.90551
G1 X68.914 Y142.17 E11.92769
G1 X67.897 Y141.399 E11.99136
G1 X67.201 Y140.855 E12.03543
G1 X66.841 Y140.559 E12.05868
G1 X65.897 Y139.766 E12.12019
G1 X65.177 Y139.144 E12.16766
G1 X64.889 Y138.883 E12.18705
G1 X63.993 Y138.05 E12.24809
G1 X63.24 Y137.331 E12.30003
G1 X63.008 Y137.098 E12.31643
G1 X62.069 Y136.135 E12.38354
G1 X61.465 Y135.497 E12.42737
G1 X61.227 Y135.233 E12.4451
G1 X60.346 Y134.234 E12.51155
G1 X59.723 Y133.507 E12.55932
G1 X59.489 Y133.219 E12.57783
G1 X58.68 Y132.206 E12.64251
G1 X58.114 Y131.473 E12.68871
G1 X57.877 Y131.149 E12.70874
G1 X57.114 Y130.089 E12.7739
G1 X56.594 Y129.342 E12.81931
G1 X56.406 Y129.057 E12.83634
G1 X55.673 Y127.922 E12.90375
G1 X55.19 Y127.15 E12.94918
G1 X54.994 Y126.817 E12.96846
G1 X54.332 Y125.67 E13.03453
G1 X53.904 Y124.901 E13.07844
G1 X53.708 Y124.53 E13.09937
G1 X53.13 Y123.402 E13.16261
G1 X52.709 Y122.548 E13.21011
G1 X52.529 Y122.16 E13.23145
G1 X52.017 Y121.026 E13.29352
G1 X51.64 Y120.157 E13.34078
G1 X51.51 Y119.837 E13.35801
G1 X51.042 Y118.643 E13.42199
G1 X50.684 Y117.689 E13.47283
G1 X50.583 Y117.397 E13.48824
G1 X50.162 Y116.144 E13.55419
G1 X49.871 Y115.233 E13.6019
G1 X49.781 Y114.926 E13.61786
G1 X49.425 Y113.661 E13.68343
G1 X49.169 Y112.695 E13.73329
G1 X49.099 Y112.404 E13.74822
G1 X48.8 Y111.094 E13.81525
G1 X48.604 Y110.177 E13.86204
G1 X48.535 Y109.808 E13.88077
G1 X48.314 Y108.546 E13.94469
G1 X48.161 Y107.596 E13.99269
G1 X48.112 Y107.232 E14.01102
G1 X47.955 Y105.977 E14.07412
G1 X47.85 Y105.024 E14.12195
G1 X47.81 Y104.553 E14.14553
G1 X47.72 Y103.359 E14.20527
G1 X47.664 Y102.409 E14.25275
G1 X47.649 Y102.002 E14.27307
G1 X47.617 Y100.717 E14.3372
G1 X47.608 Y99.8 E14.38295
G1 X47.614 Y99.41 E14.40241
G1 X47.647 Y98.097 E14.46793
G1 X47.683 Y97.198 E14.51282
G1 X47.708 Y96.804 E14.53252
G1 X47.806 Y95.508 E14.59736
G1 X47.886 Y94.609 E14.64239
G1 X47.94 Y94.145 E14.66569
G1 X48.091 Y92.94 E14.72628
G1 X48.223 Y91.994 E14.77393
G1 X48.294 Y91.567 E14.79553
G1 X48.51 Y90.344 E14.85749
G1 X48.685 Y89.429 E14.90397
G1 X48.773 Y89.023 E14.92469
G1 X49.062 Y87.76 E14.98933
G1 X49.279 Y86.872 E15.03494
G1 X49.372 Y86.526 E15.05281
G1 X49.723 Y85.283 E15.11725
G1 X50.001 Y84.346 E15.16601
G1 X50.12 Y83.981 E15.18517
G1 X50.531 Y82.757 E15.24958
G1 X50.83 Y81.909 E15.29444
G1 X50.986 Y81.499 E15.31633
G1 X51.446 Y80.328 E15.37909
G1 X51.801 Y79.461 E15.42583
G1 X51.949 Y79.124 E15.4442
G1 X52.5 Y77.904 E15.51098
G1 X52.883 Y77.089 E15.55591
G1 X53.053 Y76.749 E15.57488
G1 X53.635 Y75.612 E15.6386
G1 X54.089 Y74.759 E15.68681
G1 X54.282 Y74.415 E15.70649
G1 X54.901 Y73.344 E15.7682
G1 X55.417 Y72.481 E15.81837
G1 X55.588 Y72.209 E15.8344
G1 X56.326 Y71.069 E15.90215
G1 X56.83 Y70.312 E15.94752
G1 X57.03 Y70.029 E15.96481
G1 X57.785 Y68.98 E16.02929
G1 X58.369 Y68.192 E16.07822
G1 X58.591 Y67.907 E16.09625
G1 X59.382 Y66.917 E16.15947
G1 X60.022 Y66.138 E16.20976
G1 X60.235 Y65.892 E16.226
G1 X61.135 Y64.871 E16.2939
G1 X61.706 Y64.242 E16.33628
G1 X62.01 Y63.924 E16.35823
G1 X62.907 Y63.006 E16.42227
G0 F3600 X63.189 Y63.289
G1 F1800 X63.823 Y62.659 E16.46686
G1 X64.153 Y62.345 E16.48958
G1 X65.038 Y61.524 E16.54981
G1 X65.773 Y60.862 E16.59916
G1 X66.007 Y60.662 E16.61452
G1 X67.024 Y59.81 E16.68071
G1 X67.717 Y59.246 E16.72528
G1 X68.066 Y58.974 E16.74736
G1 X69.047 Y58.232 E16.80873
G1 X69.818 Y57.665 E16.85647
G1 X70.121 Y57.454 E16.87489
G1 X71.203 Y56.716 E16.94024
G1 X71.954 Y56.221 E16.98511
G1 X72.287 Y56.013 E17.0047
G1 X73.407 Y55.328 E17.0702
G1 X74.158 Y54.885 E17.1137
G1 X74.539 Y54.674 E17.13543
G1 X75.647 Y54.07 E17.19838
G1 X76.439 Y53.653 E17.24304
G1 X76.783 Y53.482 E17.2622
G1 X77.965 Y52.913 E17.32765
G1 X78.793 Y52.53 E17.37317
G1 X79.182 Y52.362 E17.39431
G1 X80.31 Y51.887 E17.45537
G1 X81.168 Y51.539 E17.50156
G1 X81.61 Y51.372 E17.52513
G1 X82.734 Y50.964 E17.58479
G1 X83.641 Y50.649 E17.63269
G1 X84.013 Y50.531 E17.65216
G1 X85.196 Y50.166 E17.71393
G1 X86.108 Y49.899 E17.76134
G1 X86.481 Y49.799 E17.7806
G1 X87.73 Y49.481 E17.84491
G1 X88.648 Y49.264 E17.89197
G1 X88.962 Y49.197 E17.90798
G1 X90.263 Y48.933 E17.97421
G1 X91.163 Y48.765 E18.01989
G1 X91.56 Y48.7 E18.03996
G1 X92.774 Y48.517 E18.10121
G1 X93.741 Y48.387 E18.14989
G1 X94.113 Y48.345 E18.16857
G1 X95.415 Y48.215 E18.23385
G1 X96.3 Y48.14 E18.27816
G1 X96.703 Y48.115 E18.2983
G1 X97.984 Y48.052 E18.36229
G1 X98.904 Y48.02 E18.40822
G1 X99.24 Y48.016 E18.42498
G1 X100.569 Y48.016 E18.49128
G1 X101.505 Y48.03 E18.53799
G1 X101.853 Y48.043 E18.55536
G1 X103.165 Y48.109 E18.6209
G1 X104.082 Y48.169 E18.66675
G1 X104.437 Y48.2 E18.68453
G1 X105.748 Y48.331 E18.75026
G1 X106.653 Y48.435 E18.7957
G1 X107.056 Y48.492 E18.81601
G1 X108.3 Y48.68 E18.87878
G1 X109.216 Y48.832 E18.9251
G1 X109.616 Y48.909 E18.94543
G1 X110.859 Y49.16 E19.00869
G1 X111.745 Y49.353 E19.05393
G1 X112.16 Y49.452 E19.07522
G1 X113.394 Y49.767 E19.13875
G1 X114.263 Y50.003 E19.18368
G1 X114.663 Y50.122 E19.2045
G1 X115.817 Y50.478 E19.26475
G1 X116.776 Y50.789 E19.31505
G1 X117.113 Y50.908 E19.33288
G1 X118.263 Y51.327 E19.39394
G1 X119.165 Y51.671 E19.4421
G1 X119.606 Y51.851 E19.46587
G1 X120.715 Y52.318 E19.5259
G1 X121.565 Y52.692 E19.57223
G1 X121.924 Y52.86 E19.59201
G1 X123.09 Y53.421 E19.65656
G1 X123.856 Y53.804 E19.69929
G1 X124.289 Y54.034 E19.72375
G1 X125.348 Y54.611 E19.78392
G1 X126.17 Y55.075 E19.83101
G1 X126.502 Y55.272 E19.85027
G1 X127.576 Y55.929 E19.91308
G1 X128.388 Y56.442 E19.961
G1 X128.687 Y56.641 E19.97892
G1 X129.772 Y57.38 E20.04441
G1 X130.451 Y57.857 E20.08581
G1 X130.845 Y58.149 E20.11028
G1 X131.857 Y58.917 E20.17366
G1 X132.545 Y59.455 E20.21723
G1 X132.902 Y59.747 E20.24024
G1 X133.841 Y60.536 E20.30143
G1 X134.554 Y61.152 E20.34844
G1 X134.838 Y61.41 E20.36758
G1 X135.731 Y62.239 E20.42837
G1 X136.475 Y62.95 E20.47971
G1 X136.706 Y63.181 E20.49601
G1 X137.64 Y64.14 E20.5628
G1 X138.239 Y64.771 E20.60621
G1 X138.472 Y65.03 E20.62359
G1 X139.35 Y66.026 E20.68983
G1 X139.966 Y66.746 E20.7371
G1 X140.199 Y67.031 E20.75547
G1 X141.003 Y68.038 E20.81976
G1 X141.56 Y68.759 E20.86521
G1 X141.798 Y69.085 E20.88535
G1 X142.558 Y70.141 E20.95026
G1 X143.07 Y70.876 E20.99495
G1 X143.258 Y71.161 E21.01198
G1 X143.988 Y72.291 E21.0791
G1 X144.465 Y73.053 E21.12395
G1 X144.659 Y73.383 E21.14304
G1 X145.318 Y74.525 E21.20883
G1 X145.744 Y75.288 E21.25242
G1 X145.935 Y75.65 E21.27284
G1 X146.511 Y76.776 E21.33594
G1 X146.928 Y77.621 E21.38295
G1 X147.107 Y78.004 E21.40405
G1 X147.617 Y79.134 E21.4659
G1 X147.99 Y79.994 E21.51266
G1 X148.118 Y80.309 E21.52963
G1 X148.584 Y81.498 E21.59334
G1 X148.938 Y82.442 E21.64364
G1 X149.038 Y82.73 E21.65885
G1 X149.457 Y83.978 E21.72453
G1 X149.745 Y84.881 E21.77181
G1 X149.834 Y85.182 E21.78747
G1 X150.188 Y86.441 E21.85272
G1 X150.441 Y87.397 E21.90206
G1 X150.511 Y87.685 E21.91685
G1 X150.808 Y88.99 E21.98362
G1 X151.002 Y89.897 E22.02989
G1 X151.071 Y90.261 E22.04837
G1 X151.291 Y91.518 E22.11204
G1 X151.443 Y92.459 E22.15959
G1 X151.492 Y92.818 E22.17767
G1 X151.645 Y94.04 E22.23911
G1 X151.752 Y95.01 E22.2878
G1 X151.791 Y95.476 E22.31113
G1 X151.88 Y96.665 E22.37062
G1 X151.937 Y97.606 E22.41765
G1 X151.951 Y98.008 E22.43772
G1 X151.983 Y99.287 E22.50155
G1 X151.992 Y100.195 E22.54685
G1 X151.986 Y100.58 E22.56606
G1 X151.953 Y101.887 E22.63129
G1 X151.918 Y102.777 E22.67572
